src/components/Powered/assets/rocket.svg

<?xml version="1.0" encoding="UTF-8"?>
<svg width="23px" height="20px" viewBox="0 0 23 20" version="1.1" xmlns="http://www.w3.org/2000/svg" xmlns:xlink="http://www.w3.org/1999/xlink">
    <!-- Generator: Sketch 53 (72520) - https://sketchapp.com -->
    <title>rocket-chat</title>
    <desc>Created with Sketch.</desc>
    <g id="Page-1" stroke="none" stroke-width="1" fill="none" fill-rule="evenodd">
        <g id="Home@2x" transform="translate(-1043.000000, -2382.000000)" fill="#84A5CD" fill-rule="nonzero">
            <g id="rocket-chat" transform="translate(1043.000000, 2382.000000)">
                <g id="Group">
                    <path d="M11.4053814,2.27020143 C10.4193068,2.27020143 9.45216776,2.35989604 8.52425731,2.53354126 C7.38384064,0.980602123 5.62148246,0.0689278752 3.7083549,0.0689278752 C2.22202613,0.0689278752 1.38057584,0.547814598 0.0605221126,1.14872428 L1.08353874,2.00818713 C2.04446126,2.81551224 2.62510197,3.9813212 2.70606012,5.24286333 C1.23209302,6.5739961 0.434515899,8.20639376 0.434515899,9.94129955 C0.434515899,11.6769417 1.25967452,13.3506519 2.76786842,14.6933463 C2.67419134,15.9344163 2.09562281,17.0785012 1.14827668,17.874412 L0.125260051,18.7338012 L1.3325583,19.2833831 C3.82132474,20.4164219 6.844072,19.7168334 8.58249287,17.3584839 C9.49997094,17.5270479 10.4470313,17.612324 11.4053099,17.612324 C17.3509108,17.612324 22.3761754,14.3090882 22.3761754,9.9412259 C22.3761754,5.57071258 17.3471237,2.27020143 11.4053814,2.27020143 Z M18.1485594,14.0778558 C16.3592628,15.2818107 13.9644592,15.9447997 11.4053814,15.9447997 C9.70133023,15.9447997 8.56491502,15.6591466 7.83329057,15.4966212 L7.53225201,15.9936972 C6.59619572,17.5395668 4.89914711,18.3473338 3.1693008,18.1040243 C4.03211605,16.9361533 4.43361988,15.4937492 4.39882145,14.2984839 L4.39596327,13.9031059 L4.08935124,13.655157 C3.16015461,12.9036517 2.05253564,11.6493264 2.05253564,9.94137319 C2.05253564,8.4061815 2.97930281,6.93711934 4.66206049,5.80481698 C6.45135709,4.60086203 8.84616064,3.93787308 11.4052385,3.93787308 C13.9643163,3.93787308 16.3590484,4.60093567 18.1484165,5.80481698 C19.8312456,6.93711934 20.7579413,8.40610786 20.7579413,9.94137319 C20.7579413,11.4766385 19.8313171,12.9455534 18.1485594,14.0778558 Z" id="Shape"></path>
                    <ellipse id="Oval" cx="11.2433222" cy="9.97443795" rx="1.26210398" ry="1.30071908"></ellipse>
                    <ellipse id="Oval" cx="6.95668458" cy="9.97443795" rx="1.26210398" ry="1.30071908"></ellipse>
                    <ellipse id="Oval" cx="15.5651155" cy="9.97443795" rx="1.26210398" ry="1.30071908"></ellipse>
                </g>
            </g>
        </g>
    </g>
</svg>

<svg width="23" height="20" xmlns="http://www.w3.org/2000/svg"><g fill="#84A5CD" fill-rule="nonzero"><path d="M11.405 2.27c-.986 0-1.953.09-2.88.264C7.383.98 5.62.069 3.707.069c-1.486 0-2.327.479-3.647 1.08l1.023.86a4.594 4.594 0 0 1 1.622 3.234C1.232 6.574.435 8.206.435 9.94c0 1.736.825 3.41 2.333 4.752a4.592 4.592 0 0 1-1.62 3.181l-1.023.86 1.208.55c2.488 1.132 5.511.433 7.25-1.926a15.64 15.64 0 0 0 2.822.254c5.946 0 10.971-3.303 10.971-7.67 0-4.371-5.029-7.672-10.97-7.672zm6.744 11.808c-1.79 1.204-4.185 1.867-6.744 1.867-1.704 0-2.84-.286-3.572-.448l-.3.497c-.937 1.546-2.634 2.353-4.364 2.11.863-1.168 1.265-2.61 1.23-3.806l-.003-.395-.307-.248c-.929-.751-2.036-2.006-2.036-3.714 0-1.535.926-3.004 2.61-4.136C6.45 4.6 8.845 3.938 11.404 3.938c2.56 0 4.954.663 6.743 1.867 1.683 1.132 2.61 2.601 2.61 4.136 0 1.536-.927 3.005-2.61 4.137z"/><ellipse cx="11.243" cy="9.974" rx="1.262" ry="1.301"/><ellipse cx="6.957" cy="9.974" rx="1.262" ry="1.301"/><ellipse cx="15.565" cy="9.974" rx="1.262" ry="1.301"/></g></svg>
